**kern	**silbe	**kern	**silbe	**harmony	**phrase	**leadinstrument	**rhyme	**timestamp	**harte
*ICvox	*	*ICvox	*	*M4/4	*	*	*	*	*M4/4
*VRlead	*	*VRharmonize	*	*	*	*	*	*	*
*Hstimme	*	*Nstimme	*	*	*	*	*	*	*
*C:	*	*C:	*	*C:	*C:	*C:	*	*C:	*C:
*M4/4	*	*M4/4	*	*	*	*	*	*	*
*clefG2	*	*clefF4	*	*	*	*	*	*	*
r;	.	r;	.	1r;	.	r	.	0	N.C.
=1	=1	=1	=1	=1	=1	=1	=1	=1	=1
*>Letter>A	*>Letter>A	*>Letter>A	*>Letter>A	*>Letter>A	*>Letter>A	*>Letter>A	*>Letter>A	*>Letter>A	*>Letter>A
*>Label>Intro	*>Label>Intro	*>Label>Intro	*>Label>Intro	*>Label>Intro	*>Label>Intro	*>Label>Intro	*>Label>Intro	*>Label>Intro	*>Label>Intro
1r	.	1r	.	2CM	newline	keyboard	.	1.421	C:maj
.	.	.	.	2GM	.	keyboard	.	2.4	G:maj/4
=2	=2	=2	=2	=2	=2	=2	=2	=2	=2
1r	.	1r	.	2Am	.	keyboard	.	3.379	A:min/b3
.	.	.	.	2GM	.	keyboard	.	4.357	G:maj/4
=3	=3	=3	=3	=3	=3	=3	=3	=3	=3
1r	.	1r	.	1Cmm	.	keyboard	.	5.336	C:min7
=4	=4	=4	=4	=4	=4	=4	=4	=4	=4
1r	.	1r	.	1Cmm	.	keyboard	.	7.294	C:min7
=5	=5	=5	=5	=5	=5	=5	=5	=5	=5
1r	.	1r	.	1FM	.	keyboard	.	9.251	F:maj
=6	=6	=6	=6	=6	=6	=6	=6	=6	=6
1r	.	1r	.	1FM	.	keyboard	.	11.209	F:maj
=7	=7	=7	=7	=7	=7	=7	=7	=7	=7
1r	.	1r	.	1CM	.	keyboard	.	13.166	C:maj
=8	=8	=8	=8	=8	=8	=8	=8	=8	=8
2r	.	1r	.	1CM	.	keyboard	.	15.123	C:maj
4r	.	.	.	.	.	.	.	.	.
16f	My	.	.	.	.	.	.	.	.
8.g	_	.	.	.	.	.	.	.	.
=9	=9	=9	=9	=9	=9	=9	=9	=9	=9
*>Letter>B	*>Letter>B	*>Letter>B	*>Letter>B	*>Letter>B	*>Letter>B	*>Letter>B	*>Letter>B	*>Letter>B	*>Letter>B
*>Label>Verse	*>Label>Verse	*>Label>Verse	*>Label>Verse	*>Label>Verse	*>Label>Verse	*>Label>Verse	*>Label>Verse	*>Label>Verse	*>Label>Verse
16g	friends	1r	.	1Cm	newline	voice	.	17.081	C:min
8.f	_	.	.	.	.	.	.	.	.
8fQ	_	.	.	.	.	.	.	.	.
8~e	won-	.	.	.	.	.	.	.	.
8e-	-der	.	.	.	.	.	.	.	.
8e-	why	.	.	.	.	.	A	.	.
8d	I	.	.	.	.	.	.	.	.
8d	call	.	.	.	.	.	.	.	.
8d	you	.	.	.	.	.	.	.	.
=10	=10	=10	=10	=10	=10	=10	=10	=10	=10
*clefF4	*	*	*	*	*	*	*	*	*
8d	all	1r	.	1Cm	.	voice	.	19.042	C:min
8e-	the	.	.	.	.	.	.	.	.
8c	time,	.	.	.	.	.	A	.	.
8G	_	.	.	.	.	.	.	.	.
8G	what	.	.	.	.	.	.	.	.
8B-	can	.	.	.	.	.	.	.	.
8G	I	.	.	.	.	.	.	.	.
[8B-	say	.	.	.	.	.	B	.	.
=11	=11	=11	=11	=11	=11	=11	=11	=11	=11
8B-]	_	1r	.	1Fm	.	voice	.	21.003	F:min
16G	_	.	.	.	.	.	.	.	.
16F	_	.	.	.	.	.	.	.	.
8E-	_	.	.	.	.	.	.	.	.
8r	.	.	.	.	.	.	.	.	.
4r	.	.	.	.	.	.	.	.	.
4r	.	.	.	.	.	.	.	.	.
=12	=12	=12	=12	=12	=12	=12	=12	=12	=12
1r	.	1r	.	1Fm	.	voice	.	22.964	F:min
=13	=13	=13	=13	=13	=13	=13	=13	=13	=13
4e-	I	1r	.	1A-M	.	voice	.	24.925	A-:maj
4e-	don't	.	.	.	.	.	.	.	.
8e-	feel	.	.	.	.	.	.	.	.
8c	the	.	.	.	.	.	.	.	.
8e-	need	.	.	.	.	.	.	.	.
8c	to	.	.	.	.	.	.	.	.
=14	=14	=14	=14	=14	=14	=14	=14	=14	=14
4f	give	1r	.	1B-M	.	voice	.	26.886	B-:maj
4f	such	.	.	.	.	.	.	.	.
8g	se-	.	.	.	.	.	.	.	.
8f	-crets	.	.	.	.	.	.	.	.
8e-	a-	.	.	.	.	.	.	.	.
16f	-way	.	.	.	.	.	B	.	.
16e-	_	.	.	.	.	.	.	.	.
=15	=15	=15	=15	=15	=15	=15	=15	=15	=15
[1c	_	1r	.	1CM	.	voice	.	28.847	C:maj(9)
=16	=16	=16	=16	=16	=16	=16	=16	=16	=16
2c_	_	1r	.	1CM	.	voice	.	30.808	C:maj(9)
8c]	_	.	.	.	.	.	.	.	.
8r	.	.	.	.	.	.	.	.	.
8r	.	.	.	.	.	.	.	.	.
8g	You	.	.	.	.	.	.	.	.
=17	=17	=17	=17	=17	=17	=17	=17	=17	=17
16g	think	1r	.	1Cm	newline	voice	.	32.769	C:min
8.f	_	.	.	.	.	.	.	.	.
8fQ	_	.	.	.	.	.	.	.	.
8e-	may-	.	.	.	.	.	.	.	.
8e-	-be	.	.	.	.	.	.	.	.
8e-	I	.	.	.	.	.	.	.	.
4d	need	.	.	.	.	.	.	.	.
16e-	help	.	.	.	.	.	.	.	.
16d	_	.	.	.	.	.	.	.	.
=18	=18	=18	=18	=18	=18	=18	=18	=18	=18
8c	_	1r	.	1Cm	.	voice	.	34.753	C:min
8r	.	.	.	.	.	.	.	.	.
8G	though	.	.	.	.	.	.	.	.
8G	I	.	.	.	.	.	.	.	.
8B-	know	.	.	.	.	.	.	.	.
8B-	I'm	.	.	.	.	.	.	.	.
8G	_	.	.	.	.	.	.	.	.
[8B-	right	.	.	.	.	.	A	.	.
=19	=19	=19	=19	=19	=19	=19	=19	=19	=19
8B-]	_	1r	.	1Fm	.	voice	.	36.736	F:min
8c	_	.	.	.	.	.	.	.	.
4r	.	.	.	.	.	.	.	.	.
4r	.	.	.	.	.	.	.	.	.
8G	all	.	.	.	.	.	.	.	.
8F	right	.	.	.	.	.	A	.	.
=20	=20	=20	=20	=20	=20	=20	=20	=20	=20
2r	.	1r	.	1Fm	.	voice	.	38.719	F:min
4r	.	.	.	.	.	.	.	.	.
8r	.	.	.	.	.	.	.	.	.
8c	I'm	.	.	.	.	.	.	.	.
=21	=21	=21	=21	=21	=21	=21	=21	=21	=21
4e-	just	1r	.	1A-M	.	voice	.	40.703	A-:maj
8e-	bet-	.	.	.	.	.	.	.	.
8c	-ter	.	.	.	.	.	.	.	.
4e-	off	.	.	.	.	.	.	.	.
8e-	not	.	.	.	.	.	.	.	.
8f	l-	.	.	.	.	.	.	.	.
=22	=22	=22	=22	=22	=22	=22	=22	=22	=22
8f	-lis-	1r	.	1B-M	.	voice	.	42.686	B-:maj
8f	-ten-	.	.	.	.	.	.	.	.
8f	-ing	.	.	.	.	.	.	.	.
8f	to	.	.	.	.	.	.	.	.
8fq	_	.	.	.	.	.	.	.	.
8g	friends'	.	.	.	.	.	.	.	.
8f	_	.	.	.	.	.	.	.	.
8e-	ad-	.	.	.	.	.	.	.	.
8fq	-vice	.	.	.	.	.	A	.	.
8e-	_	.	.	.	.	.	.	.	.
=23	=23	=23	=23	=23	=23	=23	=23	=23	=23
[1c	_	1r	.	1CM	.	voice	.	44.669	C:maj(9)
=24	=24	=24	=24	=24	=24	=24	=24	=24	=24
2c]	_	1r	.	1CM	.	voice	.	46.653	C:maj(9)
8r	.	.	.	.	.	.	.	.	.
8g	When	.	.	.	.	.	.	.	.
8g	they	.	.	.	.	.	.	.	.
8g	in-	.	.	.	.	.	.	.	.
=25	=25	=25	=25	=25	=25	=25	=25	=25	=25
*>Letter>C	*>Letter>C	*>Letter>C	*>Letter>C	*>Letter>C	*>Letter>C	*>Letter>C	*>Letter>C	*>Letter>C	*>Letter>C
*>Label>Prechorus	*>Label>Prechorus	*>Label>Prechorus	*>Label>Prechorus	*>Label>Prechorus	*>Label>Prechorus	*>Label>Prechorus	*>Label>Prechorus	*>Label>Prechorus	*>Label>Prechorus
8g	-sist	1r	.	2Fm	newline	voice	C	48.636	F:sus2
4r	.	.	.	.	.	.	.	.	.
8c	on	.	.	.	.	.	.	.	.
8e-	kno-	.	.	2Fm	.	voice	.	49.62	F:min
8f	-wing	.	.	.	.	.	.	.	.
8g	my	.	.	.	.	.	.	.	.
16g	bliss	.	.	.	.	.	C	.	.
16a-	_	.	.	.	.	.	.	.	.
=26	=26	=26	=26	=26	=26	=26	=26	=26	=26
4g	_	1r	.	1Gmm	.	voice	.	50.603	G:min7/5
4r	.	.	.	.	.	.	.	.	.
2r	.	.	.	.	.	.	.	.	.
=27	=27	=27	=27	=27	=27	=27	=27	=27	=27
4r	.	1r	.	1Fmm	.	voice	.	52.57	F:min9
8r	.	.	.	.	.	.	.	.	.
8c	I	.	.	.	.	.	.	.	.
8e-	tell	.	.	.	.	.	.	.	.
8f	them	.	.	.	.	.	.	.	.
8g	_	.	.	.	.	.	.	.	.
8g	this	.	.	.	.	.	C	.	.
=28	=28	=28	=28	=28	=28	=28	=28	=28	=28
2r	.	1r	.	1Gmm	.	voice	.	54.536	G:min7/5
8c	When	.	.	.	.	.	.	.	.
8e-	they	.	.	.	.	.	.	.	.
8e-	wan-	.	.	.	.	.	.	.	.
8c	-na	.	.	.	.	.	.	.	.
=29	=29	=29	=29	=29	=29	=29	=29	=29	=29
4e-	know	1r	.	1Fmm	.	voice	.	56.503	F:min9
8e-	what	.	.	.	.	.	.	.	.
8c	the	.	.	.	.	.	.	.	.
8e-	rea	.	.	.	.	.	.	.	.
8f	_	.	.	.	.	.	.	.	.
8g	son	.	.	.	.	.	.	.	.
16g	is	.	.	.	.	.	C	.	.
16a-	_	.	.	.	.	.	.	.	.
=30	=30	=30	=30	=30	=30	=30	=30	=30	=30
4g	_	1r	.	1Gmm	.	voice	.	58.47	G:min7/5
4r	.	.	.	.	.	.	.	.	.
8r	.	.	.	.	.	.	.	.	.
8c	I	.	.	.	.	.	.	.	.
8e-	on-	.	.	.	.	.	.	.	.
8c	-ly	.	.	.	.	.	.	.	.
=31	=31	=31	=31	=31	=31	=31	=31	=31	=31
*	*	*clefG2	*	*	*	*	*	*	*
4e-	smile	1r	.	1Fmm	.	voice	.	60.437	F:min9
8e-	when	.	.	.	.	.	.	.	.
8c	I	.	.	.	.	.	.	.	.
4e-	lie,	.	.	.	.	.	A	.	.
8c	then	.	.	.	.	.	.	.	.
8e-	I	.	.	.	.	.	.	.	.
=32	=32	=32	=32	=32	=32	=32	=32	=32	=32
8fq	_	.	.	.	.	.	.	.	.
8g	tell	2r	.	2FM	.	voice	.	62.403	F:maj/2
8g	them	.	.	.	.	.	.	.	.
[4g	why	.	.	.	.	.	A	.	.
8g]	_	8r	.	2GM	.	voice	.	63.387	G:maj
8r	.	8d 8g 8b	Be-	.	.	.	.	.	.
4r	.	8d 8g 8b	-cause	.	.	.	.	.	.
.	.	8e 8g 8cc	your	.	.	.	.	.	.
=33	=33	=33	=33	=33	=33	=33	=33	=33	=33
*>Letter>D	*>Letter>D	*>Letter>D	*>Letter>D	*>Letter>D	*>Letter>D	*>Letter>D	*>Letter>D	*>Letter>D	*>Letter>D
*>Label>Chorus	*>Label>Chorus	*>Label>Chorus	*>Label>Chorus	*>Label>Chorus	*>Label>Chorus	*>Label>Chorus	*>Label>Chorus	*>Label>Chorus	*>Label>Chorus
4r	.	8e 8g 8cc	kiss	2CM	newline	voice	.	64.37	C:maj
.	.	8r	.	.	.	.	.	.	.
8e	Your	4r	.	.	.	.	.	.	.
8d	kiss	.	.	.	.	.	C	.	.
4r	.	2r	.	2GM	.	voice	.	65.359	G:maj/4
8d	is	.	.	.	.	.	.	.	.
[8c	on	.	.	.	.	.	.	.	.
=34	=34	=34	=34	=34	=34	=34	=34	=34	=34
4c]	_	2r	.	2Am	.	voice	.	66.347	A:min/b3
8cq	_	.	.	.	.	.	.	.	.
8d	my	.	.	.	.	.	.	.	.
8d	list	.	.	.	.	.	C	.	.
8r	.	8r	.	2GM	.	voice	.	67.336	G:maj/4
8d	be-	8B 8d 8g	Be-	.	.	.	.	.	.
8d	-cause	8B 8d 8g	-cause	.	.	.	.	.	.
8e-	your	8B- 8e- 8g	your	.	.	.	.	.	.
=35	=35	=35	=35	=35	=35	=35	=35	=35	=35
8e-	kiss	8B- 8e- 8g	kiss	1Cmm	.	voice	C	68.325	C:min7
8r	.	8r	.	.	.	.	.	.	.
8g	your	4r	.	.	.	.	.	.	.
8f	kiss	.	.	.	.	.	C	.	.
4r	.	2r	.	.	.	.	.	.	.
8d	is	.	.	.	.	.	.	.	.
[8e-	on	.	.	.	.	.	.	.	.
=36	=36	=36	=36	=36	=36	=36	=36	=36	=36
4e-]	_	2r	.	1Cmm	.	voice	.	70.302	C:min7
8f	my	.	.	.	.	.	.	.	.
16g	list,	.	.	.	.	.	C	.	.
16f	_	.	.	.	.	.	.	.	.
8e-	_	8r	.	.	.	.	.	.	.
8g	be-	8c 8a	be-	.	.	.	.	.	.
8g	-cause	8c 8a	-cause	.	.	.	.	.	.
8g	your	8c 8a	your	.	.	.	.	.	.
=37	=37	=37	=37	=37	=37	=37	=37	=37	=37
16g	kiss	4c 4f 4a	kiss	1FM	.	voice	C	72.28	F:maj
8.f	_	.	.	.	.	.	.	.	.
8f	is	8c 8f 8a	is	.	.	.	.	.	.
[8f	on	[8c [8f [8a	on	.	.	.	.	.	.
8f]	_	8c] 8f] 8a]	_	.	.	.	.	.	.
8c	my	8c 8f 8a	my	.	.	.	.	.	.
8c	list	8c 8f 8a	list	.	.	.	C	.	.
8r	.	8r	.	.	.	.	.	.	.
=38	=38	=38	=38	=38	=38	=38	=38	=38	=38
4r	.	1r	.	1FM	.	voice	.	74.257	F:maj
8B	of	.	.	.	.	.	.	.	.
8c	the	.	.	.	.	.	.	.	.
8e	best	.	.	.	.	.	.	.	.
8g	things	.	.	.	.	.	.	.	.
8e	in	.	.	.	.	.	.	.	.
8dq	_	.	.	.	.	.	.	.	.
8g	life	.	.	.	.	.	A	.	.
=39	=39	=39	=39	=39	=39	=39	=39	=39	=39
[2.e	_	4.B 4.d 4.g	Ah	1CM	.	voice	.	76.234	C:maj
.	.	[8c [8e [8g	_	.	.	.	.	.	.
.	.	4c] 4e] 4g]	_	.	.	.	.	.	.
8e_	_	4B 4d 4g	_	.	.	.	.	.	.
16.e]	_	.	.	.	.	.	.	.	.
32d	_	.	.	.	.	.	.	.	.
=40	=40	=40	=40	=40	=40	=40	=40	=40	=40
16.e	_	8r	.	1CM	.	voice	.	78.212	C:maj
32d	_	.	.	.	.	.	.	.	.
16.e	_	8B 8d	ah!	.	.	.	.	.	.
32d	_	.	.	.	.	.	.	.	.
8e	_	8c 8e	_	.	.	.	.	.	.
8r	.	[8d [8f	_	.	.	.	.	.	.
8r	.	8d] 8f]	_	.	.	.	.	.	.
8d	Be-	8B 8d 8g	Be-	.	.	.	.	.	.
8d	-cause	8B 8d 8g	-cause	.	.	.	.	.	.
8e	your	8c 8e 8g	your	.	.	.	.	.	.
=41	=41	=41	=41	=41	=41	=41	=41	=41	=41
*>Letter>D	*>Letter>D	*>Letter>D	*>Letter>D	*>Letter>D	*>Letter>D	*>Letter>D	*>Letter>D	*>Letter>D	*>Letter>D
*>Label>Chorus	*>Label>Chorus	*>Label>Chorus	*>Label>Chorus	*>Label>Chorus	*>Label>Chorus	*>Label>Chorus	*>Label>Chorus	*>Label>Chorus	*>Label>Chorus
4r	.	8e 8g 8cc	kiss	2CM	newline	voice	.	80.189	C:maj
.	.	8r	.	.	.	.	.	.	.
8e	Your	4r	.	.	.	.	.	.	.
8d	kiss	.	.	.	.	.	C	.	.
4r	.	2r	.	2GM	.	voice	.	81.176	G:maj/4
8d	is	.	.	.	.	.	.	.	.
[8c	on	.	.	.	.	.	.	.	.
=42	=42	=42	=42	=42	=42	=42	=42	=42	=42
4c]	_	2r	.	2Am	.	voice	.	82.163	A:min/b3
8cq	_	.	.	.	.	.	.	.	.
8d	my	.	.	.	.	.	.	.	.
8d	list	.	.	.	.	.	C	.	.
8r	.	8r	.	2GM	.	voice	.	83.151	G:maj/4
8d	be-	8B 8d 8g	Be-	.	.	.	.	.	.
8d	-cause	8B 8d 8g	-cause	.	.	.	.	.	.
8e-	your	8B- 8e- 8g	your	.	.	.	.	.	.
=43	=43	=43	=43	=43	=43	=43	=43	=43	=43
8e-	kiss	8B- 8e- 8g	kiss	1Cmm	.	voice	C	84.138	C:min7
8r	.	8r	.	.	.	.	.	.	.
8g	your	4r	.	.	.	.	.	.	.
8f	kiss	.	.	.	.	.	C	.	.
4r	.	2r	.	.	.	.	.	.	.
8d	I	.	.	.	.	.	.	.	.
[8e-	can't	.	.	.	.	.	.	.	.
=44	=44	=44	=44	=44	=44	=44	=44	=44	=44
4e-]	_	2r	.	1Cmm	.	voice	.	86.112	C:min7
8f	re-	.	.	.	.	.	.	.	.
16g	-sist,	.	.	.	.	.	C	.	.
16f	_	.	.	.	.	.	.	.	.
8e-	_	8r	.	.	.	.	.	.	.
8g	be-	8c 8a	be-	.	.	.	.	.	.
8g	-cause	8c 8a	-cause	.	.	.	.	.	.
8g	your	8c 8a	your	.	.	.	.	.	.
=45	=45	=45	=45	=45	=45	=45	=45	=45	=45
16g	kiss	4c 4f 4a	kiss	1FM	.	voice	C	88.086	F:maj
8.f	_	.	.	.	.	.	.	.	.
8f	is	8c 8f 8a	is	.	.	.	.	.	.
[8f	what	[8c [8f [8a	what	.	.	.	.	.	.
8f]	_	8c] 8f] 8a]	_	.	.	.	.	.	.
8c	I	8c 8f 8a	I	.	.	.	.	.	.
8c	miss	8c 8f 8a	miss	.	.	.	C	.	.
8r	.	8r	.	.	.	.	.	.	.
=46	=46	=46	=46	=46	=46	=46	=46	=46	=46
4r	.	1r	.	1FM	.	voice	.	90.06	F:maj
8B	when	.	.	.	.	.	.	.	.
8c	I	.	.	.	.	.	.	.	.
8e	turn	.	.	.	.	.	.	.	.
8g	out	.	.	.	.	.	.	.	.
8e	the	.	.	.	.	.	.	.	.
8dq	_	.	.	.	.	.	.	.	.
8g	light	.	.	.	.	.	A	.	.
=47	=47	=47	=47	=47	=47	=47	=47	=47	=47
[1e	_	1r	.	1CM	.	voice	.	92.034	C:maj
=48	=48	=48	=48	=48	=48	=48	=48	=48	=48
2e]	_	1r	.	1CM	.	voice	.	94.009	C:maj
8r	.	.	.	.	.	.	.	.	.
8g	I	.	.	.	.	.	.	.	.
4g	go	.	.	.	.	.	.	.	.
=49	=49	=49	=49	=49	=49	=49	=49	=49	=49
*>Letter>B	*>Letter>B	*>Letter>B	*>Letter>B	*>Letter>B	*>Letter>B	*>Letter>B	*>Letter>B	*>Letter>B	*>Letter>B
*>Label>Verse	*>Label>Verse	*>Label>Verse	*>Label>Verse	*>Label>Verse	*>Label>Verse	*>Label>Verse	*>Label>Verse	*>Label>Verse	*>Label>Verse
16b-	cra	1r	.	1Cm	newline	voice	.	95.983	C:min
8.g	_	.	.	.	.	.	.	.	.
16g	zy	.	.	.	.	.	.	.	.
8.f	_	.	.	.	.	.	.	.	.
8~fq	_	.	.	.	.	.	.	.	.
8~e-	won-	.	.	.	.	.	.	.	.
8~e-	-der-	.	.	.	.	.	.	.	.
8~e-	-ing	.	.	.	.	.	.	.	.
16d	what	.	.	.	.	.	.	.	.
16c	_	.	.	.	.	.	.	.	.
=50	=50	=50	=50	=50	=50	=50	=50	=50	=50
8r	.	1r	.	1Cm	.	voice	.	97.957	C:min
8c	there	.	.	.	.	.	.	.	.
8c	real-	.	.	.	.	.	.	.	.
8G	-ly	.	.	.	.	.	.	.	.
8B-	is	.	.	.	.	.	.	.	.
8G	to	.	.	.	.	.	.	.	.
[4B-	see	.	.	.	.	.	D	.	.
=51	=51	=51	=51	=51	=51	=51	=51	=51	=51
8B-]	_	1r	.	1Fm	.	voice	.	99.932	F:min
16G	_	.	.	.	.	.	.	.	.
16F	_	.	.	.	.	.	.	.	.
4E-	_	.	.	.	.	.	.	.	.
8Fq	_	.	.	.	.	.	.	.	.
8G	_	.	.	.	.	.	.	.	.
8Fq	_	.	.	.	.	.	.	.	.
8G	_	.	.	.	.	.	.	.	.
4r	.	.	.	.	.	.	.	.	.
=52	=52	=52	=52	=52	=52	=52	=52	=52	=52
2r	.	1r	.	1Fm	.	voice	.	101.906	F:min
4r	.	.	.	.	.	.	.	.	.
8c	Did	.	.	.	.	.	.	.	.
8e-	the	.	.	.	.	.	.	.	.
=53	=53	=53	=53	=53	=53	=53	=53	=53	=53
4e-	night	1r	.	1A-M	.	voice	.	103.88	A-:maj
4e-	just	.	.	.	.	.	.	.	.
8e-	take	.	.	.	.	.	.	.	.
8c	up	.	.	.	.	.	.	.	.
8g	your	.	.	.	.	.	.	.	.
8f	time	.	.	.	.	.	.	.	.
=54	=54	=54	=54	=54	=54	=54	=54	=54	=54
4r	.	1r	.	1B-M	.	voice	.	105.855	B-:maj
8B-	Cuz'	.	.	.	.	.	.	.	.
8B-	it	.	.	.	.	.	.	.	.
6g	means	.	.	.	.	.	.	.	.
6f	more	.	.	.	.	.	.	.	.
6e-	to	.	.	.	.	.	.	.	.
=55	=55	=55	=55	=55	=55	=55	=55	=55	=55
16f	me	1r	.	1CM	.	voice	D	107.829	C:maj(9)
16e-	_	.	.	.	.	.	.	.	.
[8c	_	.	.	.	.	.	.	.	.
2.c_	_	.	.	.	.	.	.	.	.
=56	=56	=56	=56	=56	=56	=56	=56	=56	=56
2c_	_	1r	.	1CM	.	voice	.	109.803	C:maj(9)
8c]	_	.	.	.	.	.	.	.	.
8r	.	.	.	.	.	.	.	.	.
16f	Some	.	.	.	.	.	.	.	.
8.g	_	.	.	.	.	.	.	.	.
=57	=57	=57	=57	=57	=57	=57	=57	=57	=57
16g	times	1r	.	1Cm	newline	voice	.	111.778	C:min
8.f	_	.	.	.	.	.	.	.	.
8~gq	_	.	.	.	.	.	.	.	.
8f	I	.	.	.	.	.	.	.	.
8e-	for-	.	.	.	.	.	.	.	.
8e-	-get	.	.	.	.	.	.	.	.
8d	what	.	.	.	.	.	.	.	.
8d	I'm	.	.	.	.	.	.	.	.
8c	do-	.	.	.	.	.	.	.	.
=58	=58	=58	=58	=58	=58	=58	=58	=58	=58
8c	-ing,	1r	.	1Cm	.	voice	.	113.747	C:min
8G	I	.	.	.	.	.	.	.	.
8G	don't	.	.	.	.	.	.	.	.
8G	for-	.	.	.	.	.	.	.	.
8B-	-get	.	.	.	.	.	.	.	.
8B-	what	.	.	.	.	.	.	.	.
8G	I	.	.	.	.	.	.	.	.
[8B-	want	.	.	.	.	.	E	.	.
=59	=59	=59	=59	=59	=59	=59	=59	=59	=59
8B-]	_	1r	.	1Fm	.	voice	.	115.717	F:min
8c	_	.	.	.	.	.	.	.	.
4r	.	.	.	.	.	.	.	.	.
4r	.	.	.	.	.	.	.	.	.
8G	I	.	.	.	.	.	.	.	.
8F	want	.	.	.	.	.	E	.	.
=60	=60	=60	=60	=60	=60	=60	=60	=60	=60
2r	.	1r	.	1Fm	.	voice	.	117.687	F:min
4r	.	.	.	.	.	.	.	.	.
8r	.	.	.	.	.	.	.	.	.
8c	Re-	.	.	.	.	.	.	.	.
=61	=61	=61	=61	=61	=61	=61	=61	=61	=61
4e-	-gret	1r	.	1A-M	.	voice	.	119.657	A-:maj
8e-	what	.	.	.	.	.	.	.	.
8c	I've	.	.	.	.	.	.	.	.
4e-	done,	.	.	.	.	.	.	.	.
8e-	re-	.	.	.	.	.	.	.	.
8f	-gret	.	.	.	.	.	.	.	.
=62	=62	=62	=62	=62	=62	=62	=62	=62	=62
8f	you	1r	.	1B-M	.	voice	.	121.626	B-:maj
4r	.	.	.	.	.	.	.	.	.
8B-	I	.	.	.	.	.	.	.	.
8g	could-	.	.	.	.	.	.	.	.
8f	-n't	.	.	.	.	.	.	.	.
8e-	go	.	.	.	.	.	.	.	.
16f	on	.	.	.	.	.	E	.	.
16e-	_	.	.	.	.	.	.	.	.
=63	=63	=63	=63	=63	=63	=63	=63	=63	=63
[1c	_	1r	.	1CM	.	voice	.	123.596	C:maj(9)
=64	=64	=64	=64	=64	=64	=64	=64	=64	=64
4.c]	_	1r	.	1CM	.	voice	.	125.566	C:maj(9)
8r	.	.	.	.	.	.	.	.	.
8g	But	.	.	.	.	.	.	.	.
8g	if	.	.	.	.	.	.	.	.
8g	you	.	.	.	.	.	.	.	.
8g	in-	.	.	.	.	.	.	.	.
=65	=65	=65	=65	=65	=65	=65	=65	=65	=65
*>Letter>C	*>Letter>C	*>Letter>C	*>Letter>C	*>Letter>C	*>Letter>C	*>Letter>C	*>Letter>C	*>Letter>C	*>Letter>C
*>Label>Prechorus	*>Label>Prechorus	*>Label>Prechorus	*>Label>Prechorus	*>Label>Prechorus	*>Label>Prechorus	*>Label>Prechorus	*>Label>Prechorus	*>Label>Prechorus	*>Label>Prechorus
8g	-sist	1r	.	2Fm	newline	voice	C	127.535	F:sus2
4r	.	.	.	.	.	.	.	.	.
8c	on	.	.	.	.	.	.	.	.
8e-	kno-	.	.	2Fm	.	voice	.	128.523	F:min
8f	-wing	.	.	.	.	.	.	.	.
8g	my	.	.	.	.	.	.	.	.
16g	bliss	.	.	.	.	.	C	.	.
16a-	_	.	.	.	.	.	.	.	.
=66	=66	=66	=66	=66	=66	=66	=66	=66	=66
4g	_	1r	.	1Gmm	.	voice	.	129.51	G:min7/5
4r	.	.	.	.	.	.	.	.	.
2r	.	.	.	.	.	.	.	.	.
=67	=67	=67	=67	=67	=67	=67	=67	=67	=67
4r	.	1r	.	1Fmm	.	voice	.	131.485	F:min9
8g	I'll	.	.	.	.	.	.	.	.
8b-	tell	.	.	.	.	.	.	.	.
8g	_	.	.	.	.	.	.	.	.
8g	you	.	.	.	.	.	.	.	.
8f	_	.	.	.	.	.	.	.	.
8g	this	.	.	.	.	.	C	.	.
=68	=68	=68	=68	=68	=68	=68	=68	=68	=68
2r	.	1r	.	1Gmm	.	voice	.	133.46	G:min7/5
8c	If	.	.	.	.	.	.	.	.
8e-	you	.	.	.	.	.	.	.	.
8e-	wan-	.	.	.	.	.	.	.	.
8c	-na	.	.	.	.	.	.	.	.
=69	=69	=69	=69	=69	=69	=69	=69	=69	=69
4e-	know	1r	.	1Fmm	.	voice	.	135.435	F:min9
8e-	what	.	.	.	.	.	.	.	.
8c	the	.	.	.	.	.	.	.	.
8e-	rea	.	.	.	.	.	.	.	.
8f	_	.	.	.	.	.	.	.	.
8g	son	.	.	.	.	.	.	.	.
16g	is	.	.	.	.	.	C	.	.
16a-	_	.	.	.	.	.	.	.	.
=70	=70	=70	=70	=70	=70	=70	=70	=70	=70
16g	_	1r	.	1Gmm	.	voice	.	137.409	G:min7/5
16f	_	.	.	.	.	.	.	.	.
8g	_	.	.	.	.	.	.	.	.
4r	.	.	.	.	.	.	.	.	.
8r	.	.	.	.	.	.	.	.	.
8c	I	.	.	.	.	.	.	.	.
8e-	on-	.	.	.	.	.	.	.	.
8c	-ly	.	.	.	.	.	.	.	.
=71	=71	=71	=71	=71	=71	=71	=71	=71	=71
4e-	smile	1r	.	1Fmm	.	voice	.	139.384	F:min9
8e-	when	.	.	.	.	.	.	.	.
8c	I	.	.	.	.	.	.	.	.
4e-	lie,	.	.	.	.	.	A	.	.
8c	then	.	.	.	.	.	.	.	.
8e-	I	.	.	.	.	.	.	.	.
=72	=72	=72	=72	=72	=72	=72	=72	=72	=72
8fq	_	.	.	.	.	.	.	.	.
8g	tell	2r	.	2FM	.	voice	.	141.359	F:maj/2
8g	you	.	.	.	.	.	.	.	.
[4g	why	.	.	.	.	.	A	.	.
8g]	_	8r	.	2GM	.	voice	.	142.346	G:maj
8r	.	8d 8g 8b	Be-	.	.	.	.	.	.
4r	.	8d 8g 8b	-cause	.	.	.	.	.	.
.	.	8e 8g 8cc	your	.	.	.	.	.	.
=73	=73	=73	=73	=73	=73	=73	=73	=73	=73
*>Letter>D	*>Letter>D	*>Letter>D	*>Letter>D	*>Letter>D	*>Letter>D	*>Letter>D	*>Letter>D	*>Letter>D	*>Letter>D
*>Label>Chorus	*>Label>Chorus	*>Label>Chorus	*>Label>Chorus	*>Label>Chorus	*>Label>Chorus	*>Label>Chorus	*>Label>Chorus	*>Label>Chorus	*>Label>Chorus
4r	.	8e 8g 8cc	kiss	2CM	newline	voice	.	143.334	C:maj
.	.	8r	.	.	.	.	.	.	.
8e	Your	4r	.	.	.	.	.	.	.
8d	kiss	.	.	.	.	.	C	.	.
4r	.	2r	.	2GM	.	voice	.	144.321	G:maj/4
8d	is	.	.	.	.	.	.	.	.
[8c	on	.	.	.	.	.	.	.	.
=74	=74	=74	=74	=74	=74	=74	=74	=74	=74
4c]	_	2r	.	2Am	.	voice	.	145.307	A:min/b3
8G	my	.	.	.	.	.	.	.	.
8d	list	.	.	.	.	.	C	.	.
8r	.	8r	.	2GM	.	voice	.	146.294	G:maj/4
8d	be-	8B 8d 8g	Be-	.	.	.	.	.	.
8d	-cause	8B 8d 8g	-cause	.	.	.	.	.	.
8e-	your	8B- 8e- 8g	your	.	.	.	.	.	.
=75	=75	=75	=75	=75	=75	=75	=75	=75	=75
8e-	kiss	8B- 8e- 8g	kiss	1Cmm	.	voice	C	147.281	C:min7
8r	.	8r	.	.	.	.	.	.	.
8g	your	4r	.	.	.	.	.	.	.
8f	kiss	.	.	.	.	.	C	.	.
4r	.	2r	.	.	.	.	.	.	.
8d	I	.	.	.	.	.	.	.	.
[8e-	can't	.	.	.	.	.	.	.	.
=76	=76	=76	=76	=76	=76	=76	=76	=76	=76
8e-]	_	2r	.	1Cmm	.	voice	.	149.254	C:min7
8g	re-	.	.	.	.	.	.	.	.
8c	-sist	.	.	.	.	.	C	.	.
8r	.	.	.	.	.	.	.	.	.
8r	.	8r	.	.	.	.	.	.	.
8g	be	8c 8a	be-	.	.	.	.	.	.
8g	cause	8c 8a	-cause	.	.	.	.	.	.
8g	your	8c 8a	your	.	.	.	.	.	.
=77	=77	=77	=77	=77	=77	=77	=77	=77	=77
16g	kiss	4c 4f 4a	kiss	1FM	.	voice	C	151.227	F:maj
8.f	_	.	.	.	.	.	.	.	.
8f	is	8c 8f 8a	is	.	.	.	.	.	.
[8f	what	[8c [8f [8a	what	.	.	.	.	.	.
8f]	_	8c] 8f] 8a]	_	.	.	.	.	.	.
8c	I	8c 8f 8a	I	.	.	.	.	.	.
8c	miss	8c 8f 8a	miss	.	.	.	C	.	.
8r	.	8r	.	.	.	.	.	.	.
=78	=78	=78	=78	=78	=78	=78	=78	=78	=78
4r	.	1r	.	1FM	.	voice	.	153.201	F:maj
8c	when	.	.	.	.	.	.	.	.
8c	I	.	.	.	.	.	.	.	.
8e	turn	.	.	.	.	.	.	.	.
8g	out	.	.	.	.	.	.	.	.
8e	the	.	.	.	.	.	.	.	.
8dq	_	.	.	.	.	.	.	.	.
8g	light	.	.	.	.	.	A	.	.
=79	=79	=79	=79	=79	=79	=79	=79	=79	=79
[1e	_	1r	.	1CM	.	voice	.	155.174	C:maj
=80	=80	=80	=80	=80	=80	=80	=80	=80	=80
1e]	_	1r	.	1CM	.	voice	.	157.147	C:maj
=81	=81	=81	=81	=81	=81	=81	=81	=81	=81
*>Letter>E	*>Letter>E	*>Letter>E	*>Letter>E	*>Letter>E	*>Letter>E	*>Letter>E	*>Letter>E	*>Letter>E	*>Letter>E
*>Label>Solo	*>Label>Solo	*>Label>Solo	*>Label>Solo	*>Label>Solo	*>Label>Solo	*>Label>Solo	*>Label>Solo	*>Label>Solo	*>Label>Solo
[8g	_	1r	.	1GM	newline	electric guitar	.	159.12	G:maj/4
16.g]	_	.	.	.	.	.	.	.	.
32f	_	.	.	.	.	.	.	.	.
16.g	_	.	.	.	.	.	.	.	.
32f	_	.	.	.	.	.	.	.	.
16.g	_	.	.	.	.	.	.	.	.
32f	_	.	.	.	.	.	.	.	.
8g	_	.	.	.	.	.	.	.	.
8r	.	.	.	.	.	.	.	.	.
4r	.	.	.	.	.	.	.	.	.
=82	=82	=82	=82	=82	=82	=82	=82	=82	=82
1r	.	1r	.	1GM	.	electric guitar	.	161.093	G:maj/4
=83	=83	=83	=83	=83	=83	=83	=83	=83	=83
1r	.	1r	.	1FM	.	electric guitar	.	163.065	F:maj
=84	=84	=84	=84	=84	=84	=84	=84	=84	=84
1r	.	1r	.	1FM	.	electric guitar	.	165.038	F:maj
=85	=85	=85	=85	=85	=85	=85	=85	=85	=85
1r	.	1r	.	1Adm	.	electric guitar	.	167.01	A:hdim7/b5
=86	=86	=86	=86	=86	=86	=86	=86	=86	=86
1r	.	1r	.	1Adm	.	electric guitar	.	168.983	A:hdim7/b5
=87	=87	=87	=87	=87	=87	=87	=87	=87	=87
1r	.	1r	.	1Dmm	.	electric guitar	.	170.955	D:min7
=88	=88	=88	=88	=88	=88	=88	=88	=88	=88
*clefG2	*	*	*	*	*	*	*	*	*
8ffq	_	.	.	.	.	.	.	.	.
[1gg	Ah	2r	.	1GMm	.	electric guitar	.	172.927	G:11
.	.	8r	.	.	.	.	.	.	.
.	.	8B 8d 8g	Be-	.	.	.	.	.	.
.	.	8B 8d 8g	-cause	.	.	.	.	.	.
.	.	8c 8e 8g	your	.	.	.	.	.	.
=89	=89	=89	=89	=89	=89	=89	=89	=89	=89
*>Letter>D	*>Letter>D	*>Letter>D	*>Letter>D	*>Letter>D	*>Letter>D	*>Letter>D	*>Letter>D	*>Letter>D	*>Letter>D
*>Label>Outro	*>Label>Outro	*>Label>Outro	*>Label>Outro	*>Label>Outro	*>Label>Outro	*>Label>Outro	*>Label>Outro	*>Label>Outro	*>Label>Outro
8gg]	_	8c 8e 8g	kiss	2CM	newline	voice	.	174.9	C:maj
8r	.	8r	.	.	.	.	.	.	.
8gq	_	.	.	.	.	.	.	.	.
4a	Your	4r	.	.	.	.	.	.	.
4g	kiss	2r	.	2GM	.	voice	C	175.884	G:maj/4
8e	is	.	.	.	.	.	.	.	.
8gq	_	.	.	.	.	.	.	.	.
[8a	on	.	.	.	.	.	.	.	.
=90	=90	=90	=90	=90	=90	=90	=90	=90	=90
8a]	_	2r	.	2Am	.	voice	.	176.868	A:min/b3
8eq	_	.	.	.	.	.	.	.	.
8e	my	.	.	.	.	.	.	.	.
4g	list	.	.	.	.	.	C	.	.
2r	.	8r	.	2GM	.	voice	.	177.853	G:maj/4
.	.	8B 8d 8g	Be-	.	.	.	.	.	.
.	.	8B 8d 8g	-cause	.	.	.	.	.	.
.	.	8B- 8e- 8g	your	.	.	.	.	.	.
=91	=91	=91	=91	=91	=91	=91	=91	=91	=91
8r	.	8B- 8e- 8g	kiss	1Cmm	.	voice	.	178.837	C:min7
8aq	_	.	.	.	.	.	.	.	.
4cc	Your	8r	.	.	.	.	.	.	.
.	.	4r	.	.	.	.	.	.	.
8a	_	.	.	.	.	.	.	.	.
4f	kiss	2r	.	.	.	.	C	.	.
8e-	is	.	.	.	.	.	.	.	.
8fq	_	.	.	.	.	.	.	.	.
[8g	on	.	.	.	.	.	.	.	.
=92	=92	=92	=92	=92	=92	=92	=92	=92	=92
8g]	_	2r	.	1Cmm	.	voice	.	180.806	C:min7
8f	my	.	.	.	.	.	.	.	.
4f	list	.	.	.	.	.	C	.	.
8r	.	8r	.	.	.	.	.	.	.
8g	Be-	8c 8a	Be-	.	.	.	.	.	.
8g	-cause	8c 8a	-cause	.	.	.	.	.	.
8g	your	8c 8a	your	.	.	.	.	.	.
=93	=93	=93	=93	=93	=93	=93	=93	=93	=93
16g	kiss	4c 4f 4a	kiss	1FM	.	voice	C	182.774	F:maj
8.f	_	.	.	.	.	.	.	.	.
8f	is	8c 8f 8a	is	.	.	.	.	.	.
[8f	on	[8c [8f [8a	on	.	.	.	.	.	.
8f]	_	8c] 8f] 8a]	_	.	.	.	.	.	.
8c	my	8c 8f 8a	my	.	.	.	.	.	.
8c	list	8c 8f 8a	list	.	.	.	C	.	.
8r	.	8r	.	.	.	.	.	.	.
=94	=94	=94	=94	=94	=94	=94	=94	=94	=94
4r	.	1r	.	1FM	.	voice	.	184.743	F:maj
8c	of	.	.	.	.	.	.	.	.
8c	the	.	.	.	.	.	.	.	.
8e	best	.	.	.	.	.	.	.	.
8g	things	.	.	.	.	.	.	.	.
8e	in	.	.	.	.	.	.	.	.
[8g	life,	.	.	.	.	.	A	.	.
=95	=95	=95	=95	=95	=95	=95	=95	=95	=95
2g_	_	4.B 4.d 4.g	Ah	1CM	.	voice	.	186.711	C:maj
.	.	[8c [8e [8g	_	.	.	.	.	.	.
8g]	_	4c] 4e] 4g]	_	.	.	.	.	.	.
8e	_	.	.	.	.	.	.	.	.
16gQ	_,	.	.	.	.	.	.	.	.
[16aQ	_	.	.	.	.	.	.	.	.
[4a	_	4B 4d 4g	_	.	.	.	.	.	.
=96	=96	=96	=96	=96	=96	=96	=96	=96	=96
8a]	_	8r	.	1CM	.	voice	.	188.68	C:maj
4g	oh	8B 8d	ah!	.	.	.	.	.	.
.	.	8c 8e	_	.	.	.	.	.	.
8~e	man!	[8d [8f	_	.	.	.	.	.	.
8~d	_	8d] 8f]	_	.	.	.	.	.	.
8e	Be-	8B 8d 8g	Be-	.	.	.	.	.	.
8e	-cause	8B 8d 8g	-cause	.	.	.	.	.	.
8a	your	8c 8e 8g	your	.	.	.	.	.	.
=97	=97	=97	=97	=97	=97	=97	=97	=97	=97
*clefF4	*	*	*	*	*	*	*	*	*
8g	kiss	8e 8g 8cc	kiss	2CM	newline	voice	C	190.649	C:maj
8r	.	8r	.	.	.	.	.	.	.
8dq	_	.	.	.	.	.	.	.	.
4e	Your	4r	.	.	.	.	.	.	.
8dq	_	.	.	.	.	.	.	.	.
4G	kiss	2r	.	2GM	.	voice	C	191.633	G:maj/4
8G	is	.	.	.	.	.	.	.	.
[8c	on	.	.	.	.	.	.	.	.
=98	=98	=98	=98	=98	=98	=98	=98	=98	=98
8c]	_	2r	.	2Am	.	voice	.	192.618	A:min/b3
8G	my	.	.	.	.	.	.	.	.
4d	list	.	.	.	.	.	C	.	.
2r	.	8r	.	2GM	.	voice	.	193.603	G:maj/4
.	.	8B 8d 8g	Be-	.	.	.	.	.	.
.	.	8B 8d 8g	-cause	.	.	.	.	.	.
.	.	8B- 8e- 8g	your	.	.	.	.	.	.
=99	=99	=99	=99	=99	=99	=99	=99	=99	=99
*clefG2	*	*	*	*	*	*	*	*	*
8r	.	8B- 8e- 8g	kiss	1Cmm	.	voice	.	194.588	C:min7
8aq	_	.	.	.	.	.	.	.	.
4.cc	Your	8r	.	.	.	.	.	.	.
.	.	4r	.	.	.	.	.	.	.
4f	kiss	2r	.	.	.	.	C	.	.
8e-	I	.	.	.	.	.	.	.	.
8f	can't	.	.	.	.	.	.	.	.
=100	=100	=100	=100	=100	=100	=100	=100	=100	=100
8e-	re	2r	.	1Cmm	.	voice	.	196.557	C:min7
8f#q	_	.	.	.	.	.	.	.	.
8g	sist	.	.	.	.	.	C	.	.
8f#q	_	.	.	.	.	.	.	.	.
8g	_	.	.	.	.	.	.	.	.
8r	.	.	.	.	.	.	.	.	.
8r	.	8r	.	.	.	.	.	.	.
8g	Be-	8c 8a	Be-	.	.	.	.	.	.
8g	-cause	8c 8a	-cause	.	.	.	.	.	.
8g	your	8c 8a	your	.	.	.	.	.	.
=101	=101	=101	=101	=101	=101	=101	=101	=101	=101
16g	kiss	4c 4f 4a	kiss	1FM	.	voice	C	198.527	F:maj
8.f	_	.	.	.	.	.	.	.	.
8f	is	8c 8f 8a	is	.	.	.	.	.	.
[8f	what	[8c [8f [8a	what	.	.	.	.	.	.
8f]	_	8c] 8f] 8a]	_	.	.	.	.	.	.
8c	I	8c 8f 8a	I	.	.	.	.	.	.
8c	miss	8c 8f 8a	miss	.	.	.	C	.	.
8r	.	8r	.	.	.	.	.	.	.
=102	=102	=102	=102	=102	=102	=102	=102	=102	=102
4r	.	1r	.	1FM	.	voice	.	200.497	F:maj
8c	when	.	.	.	.	.	.	.	.
8c	I	.	.	.	.	.	.	.	.
8e	turn	.	.	.	.	.	.	.	.
8g	out	.	.	.	.	.	.	.	.
8e	the	.	.	.	.	.	.	.	.
8dq	_	.	.	.	.	.	.	.	.
8g	light	.	.	.	.	.	A	.	.
=103	=103	=103	=103	=103	=103	=103	=103	=103	=103
1e	_	4.B 4.d 4.g	Ah	1CM	.	voice	.	202.466	C:maj
.	.	[8c [8e [8g	_	.	.	.	.	.	.
.	.	4c] 4e] 4g]	_	.	.	.	.	.	.
.	.	4B 4d 4g	_	.	.	.	.	.	.
=104	=104	=104	=104	=104	=104	=104	=104	=104	=104
16fQ	_	.	.	.	.	.	.	.	.
16.g	_	8r	.	1CM	.	voice	.	204.436	C:maj
32f	_	.	.	.	.	.	.	.	.
16.g	_	8B 8d	ah!	.	.	.	.	.	.
32g	_	.	.	.	.	.	.	.	.
8G	_	8c 8e	_	.	.	.	.	.	.
8g	_	[8d [8f	_	.	.	.	.	.	.
8r	.	8d] 8f]	_	.	.	.	.	.	.
8g	Be-	8B 8d 8g	Be-	.	.	.	.	.	.
8g	-cause	8B 8d 8g	-cause	.	.	.	.	.	.
8e	your	8c 8e 8g	your	.	.	.	.	.	.
=105	=105	=105	=105	=105	=105	=105	=105	=105	=105
16g	kiss	8c 8e 8g	kiss	2CM	newline	fadeout	C	206.406	C:maj
16a	_	.	.	.	.	.	.	.	.
8r	.	8r	.	.	.	.	.	.	.
8fq	_	.	.	.	.	.	.	.	.
8g	Your	4r	.	.	.	.	.	.	.
8d	_	.	.	.	.	.	.	.	.
4d	kiss	2r	.	2GM	.	fadeout	C	207.393	G:maj/4
8d	is	.	.	.	.	.	.	.	.
[8c	on	.	.	.	.	.	.	.	.
=106	=106	=106	=106	=106	=106	=106	=106	=106	=106
8c]	_	2r	.	2Am	.	fadeout	.	208.38	A:min/b3
16c	my	.	.	.	.	.	.	.	.
8.d	_	.	.	.	.	.	.	.	.
8d	list	.	.	.	.	.	C	.	.
2r	.	8r	.	2GM	.	fadeout	.	209.367	G:maj/4
.	.	8B 8d 8g	_	.	.	.	.	.	.
.	.	8B 8d 8g	Be-	.	.	.	.	.	.
.	.	8B- 8e- 8g	-cause	.	.	.	.	.	.
=107	=107	=107	=107	=107	=107	=107	=107	=107	=107
8r	.	8B- 8e- 8g	your	1Cmm	.	fadeout	.	210.355	C:min7
8aq	_	.	.	.	.	.	.	.	.
4.cc	Your	8r	.	.	.	.	.	.	.
.	.	4r	.	.	.	.	.	.	.
4f	kiss	2r	.	.	.	.	C	.	.
8e-	I	.	.	.	.	.	.	.	.
8f	can't	.	.	.	.	.	.	.	.
=108	=108	=108	=108	=108	=108	=108	=108	=108	=108
8e-	re	2r	.	1Cmm	.	fadeout	.	212.329	C:min7
8f#q	_	.	.	.	.	.	.	.	.
8g	sist	.	.	.	.	.	C	.	.
8f#q	_	.	.	.	.	.	.	.	.
8g	_	.	.	.	.	.	.	.	.
8r	.	.	.	.	.	.	.	.	.
8g	Be-	8r	.	.	.	.	.	.	.
8g	-cause	8c 8a	_	.	.	.	.	.	.
8g	your	8c 8a	_	.	.	.	.	.	.
8r	.	8c 8a	_	.	.	.	.	.	.
=109	=109	=109	=109	=109	=109	=109	=109	=109	=109
16g	kiss	4c 4f 4a	kiss	1FM	.	fadeout	C	214.304	F:maj
8.f	_	.	.	.	.	.	.	.	.
8f	is	8c 8f 8a	is	.	.	.	.	.	.
[8f	on	[8c [8f [8a	on	.	.	.	.	.	.
8f]	_	8c] 8f] 8a]	_	.	.	.	.	.	.
8c	my	8c 8f 8a	my	.	.	.	.	.	.
8c	list	8c 8f 8a	list	.	.	.	C	.	.
8r	.	8r	.	.	.	.	.	.	.
=110	=110	=110	=110	=110	=110	=110	=110	=110	=110
4r	.	1r	.	1FM	.	fadeout	.	216.279	F:maj
8c	of	.	.	.	.	.	.	.	.
8c	the	.	.	.	.	.	.	.	.
8e	best	.	.	.	.	.	.	.	.
8g	things	.	.	.	.	.	.	.	.
8e	in	.	.	.	.	.	.	.	.
8dq	_	.	.	.	.	.	.	.	.
8g	life	.	.	.	.	.	A	.	.
=111	=111	=111	=111	=111	=111	=111	=111	=111	=111
[2.e	_	4.B 4.d 4.g	Ah	1CM	.	fadeout	.	218.253	C:maj
.	.	[8c [8e [8g	_	.	.	.	.	.	.
.	.	4c] 4e] 4g]	_	.	.	.	.	.	.
8e]	_	4B 4d 4g	_	.	.	.	.	.	.
8r	.	.	.	.	.	.	.	.	.
=112	=112	=112	=112	=112	=112	=112	=112	=112	=112
8r	.	8r	.	1CM	.	fadeout	.	220.228	C:maj
8e	Oh,	8B 8d	ah!	.	.	.	.	.	.
8f	_	8c 8e	_	.	.	.	.	.	.
8g	_	[8d [8f	_	.	.	.	.	.	.
8a	_	8d] 8f]	_	.	.	.	.	.	.
8g	be-	8B 8d 8g	Be-	.	.	.	.	.	.
8g	-cause	8B 8d 8g	-cause	.	.	.	.	.	.
8e	your	8c 8e 8g	your	.	.	.	.	.	.
=113	=113	=113	=113	=113	=113	=113	=113	=113	=113
16g	kiss	8c 8e 8g	kiss	2CM	newline	voice	C	222.203	C:maj
16a	_	.	.	.	.	.	.	.	.
8r	.	8r	.	.	.	.	.	.	.
8fq	_	.	.	.	.	.	.	.	.
8g	Your	4r	.	.	.	.	.	.	.
8d	_	.	.	.	.	.	.	.	.
4d	kiss	2r	.	2GM	.	voice	C	222.821	G:maj/4
*clefF4	*	*	*	*	*	*	*	*	*
8d	is	.	.	.	.	.	.	.	.
[8c	on	.	.	.	.	.	.	.	.
=114	=114	=114	=114	=114	=114	=114	=114	=114	=114
4c]	_	2r	.	2Am	.	voice	.	223.44	A:min/b3
8G	my	.	.	.	.	.	.	.	.
8d	list	.	.	.	.	.	C	.	.
8r	.	8r	.	2GM	.	voice	.	224.059	G:maj/4
8d	Be-	8B 8d 8g	Be-	.	.	.	.	.	.
8d	-cause	8B 8d 8g	-cause	.	.	.	.	.	.
8e-	your	8B- 8e- 8g	your	.	.	.	.	.	.
=115	=115	=115	=115	=115	=115	=115	=115	=115	=115
*clefG2	*	*	*	*	*	*	*	*	*
8r	.	8B- 8e- 8g	kiss	1Cmm	.	voice	.	224.678	C:min7
8aq	_	.	.	.	.	.	.	.	.
[4.cc	your	8r	.	.	.	.	.	.	.
.	.	4r	.	.	.	.	.	.	.
8cc]	_	2r	.	.	.	.	.	.	.
8f	kiss,	.	.	.	.	.	C	.	.
8e-	I	.	.	.	.	.	.	.	.
8f	can't	.	.	.	.	.	.	.	.
=116	=116	=116	=116	=116	=116	=116	=116	=116	=116
1r	.	1r	.	1Cmm	.	voice	.	225.916	C:min7
=117	=117	=117	=117	=117	=117	=117	=117	=117	=117
1r	.	1r	.	1FM	.	voice	.	227.154	F:maj
r;	.	r;	.	1r;	.	r	.	228.392	N.C.
r;	.	r;	.	1r;	.	r	.	231.34	N.C.
*-	*-	*-	*-	*-	*-	*-	*-	*-	*-
!!!BillboardChartDate: 1981/01/31
!!!BillboardPeak: 1
!!!BillboardWeeksOnChart: 23
!!!COC: Daryl Hall & John Oates
!!!ENC: Nathaniel Condit-Schultz
!!!EST: Awating manual error checking and editing.
!!!OTL: Kiss On My List
!!!RDF**chordsym: original McGill chord annotation + (implied pitch class set, with bass pitch in first position)
!!!RDF**harmony: **recip + pitch class of root + harmonic quality
!!!RDF**leadinstrument: original McGill primary instrumentation annotation
!!!RDF**phrase: newline = linebreak in original McGill transcription
!!!RDF**timestamp: McGill audio timestamp in seconds
!!!RDT: 2017/01/12/
!!!SampleActualRank: 55
!!!SampleID#: 0018
!!!SampleTargetRank: 56
